icons/scalable/qubes-policy-editor.svg

<svg width="24" height="24" viewBox="0 0 24 24" fill="none" xmlns="http://www.w3.org/2000/svg">
<path d="M21.378 16.6261C21.7763 16.2278 22.0001 15.6875 22.0001 15.1241C22.0001 14.5608 21.7763 14.0205 21.378 13.6221C20.9796 13.2238 20.4393 13 19.876 13C19.3126 13 18.7723 13.2238 18.374 13.6221L14.364 17.6341C14.1262 17.8718 13.9522 18.1655 13.858 18.4881L13.021 21.3581C12.9959 21.4442 12.9944 21.5354 13.0166 21.6222C13.0389 21.7091 13.084 21.7883 13.1474 21.8517C13.2108 21.9151 13.2901 21.9603 13.3769 21.9825C13.4637 22.0048 13.5549 22.0032 13.641 21.9781L16.511 21.1411C16.8336 21.0469 17.1274 20.8729 17.365 20.6351L21.378 16.6261Z" stroke="#2563eb" stroke-width="2" stroke-linecap="round" stroke-linejoin="round"/>
<path d="M16 11H4C2.89543 11 2 11.8954 2 13V20C2 21.1046 2.89543 22 4 22H9"
      stroke="#2563eb" stroke-width="2" stroke-linecap="round"
      stroke-linejoin="round"/>
<path d="M6 11V7C6 5.67392 6.52678 4.40215 7.46447 3.46447C8.40215 2.52678 9.67392 2 11 2C12.3261 2 13.5979 2.52678 14.5355 3.46447C15.4732 4.40215 16 5.67392 16 7V11" stroke="#2563eb" stroke-width="2" stroke-linecap="round" stroke-linejoin="round"/>
</svg>

<svg xmlns="http://www.w3.org/2000/svg" width="24" height="24" fill="none">
    <path stroke="#2563eb" stroke-linecap="round" stroke-linejoin="round" stroke-width="2" d="M21.378 16.626a2.124 2.124 0 0 0-3.004-3.004l-4.01 4.012a2 2 0 0 0-.506.854l-.837 2.87a.5.5 0 0 0 .62.62l2.87-.837a2 2 0 0 0 .854-.506zM16 11H4a2 2 0 0 0-2 2v7a2 2 0 0 0 2 2h5M6 11V7a5 5 0 1 1 10 0v4"/>
</svg>
